;FLAVOR:Marlin
;TIME:671
;Filament used: 0.666992m
;Layer height: 0.2
;MINX:74.414
;MINY:74.414
;MINZ:0.2
;MAXX:125.586
;MAXY:125.586
;MAXZ:6.4
;Generated with Cura_SteamEngine 4.3.0
M140 S60
M105
M190 S60
M104 S215
M105
M109 S215
M82 ;absolute extrusion mode
G21
G28 ; Home extruder
M420 S1 ; Enable MBL
M107 ; Turn off fan
G91 ; Relative positioning
G1 Z5 F180;
G1 X30 Y30 F3000;
G1 Z-5 F180;
G90 ; Absolute positioning
M82 ; Extruder in absolute mode
G92 E0 ; Reset extruder position

G92 E0
G92 E0
G1 F1500 E-1
;LAYER_COUNT:32
;LAYER:0
M107
G0 F1800 X82.54 Y81.291 Z0.2
;TYPE:SKIRT
G1 F1500 E0
G1 F900 X83.152 Y80.738 E0.02743
G1 X84.585 Y79.574 E0.08884
G1 X85.246 Y79.092 E0.11605
G1 X86.818 Y78.068 E0.17845
G1 X87.519 Y77.662 E0.20539
G1 X89.165 Y76.819 E0.2669
G1 X89.909 Y76.485 E0.29402
G1 X91.666 Y75.806 E0.35667
G1 X92.445 Y75.552 E0.38393
G1 X94.238 Y75.068 E0.4457
G1 X95.039 Y74.896 E0.47294
G1 X96.859 Y74.605 E0.53425
G1 X97.667 Y74.519 E0.56127
G1 X99.542 Y74.417 E0.62373
G1 X100.34 Y74.414 E0.65027
G1 X102.196 Y74.503 E0.71207
G1 X103.032 Y74.588 E0.74002
G1 X104.891 Y74.88 E0.80261
G1 X105.683 Y75.047 E0.82953
G1 X107.46 Y75.519 E0.89068
G1 X108.24 Y75.771 E0.91795
G1 X109.992 Y76.44 E0.98032
G1 X110.744 Y76.773 E1.00768
G1 X112.395 Y77.612 E1.06927
G1 X113.095 Y78.015 E1.09614
G1 X114.661 Y79.027 E1.15815
G1 X115.325 Y79.508 E1.18542
G1 X116.786 Y80.687 E1.24786
G1 X117.389 Y81.227 E1.27479
G1 X118.709 Y82.54 E1.33671
G1 X119.262 Y83.152 E1.36414
G1 X120.426 Y84.585 E1.42555
G1 X120.908 Y85.246 E1.45276
G1 X121.932 Y86.818 E1.51516
G1 X122.338 Y87.519 E1.5421
G1 X123.181 Y89.165 E1.60361
G1 X123.515 Y89.909 E1.63073
G1 X124.194 Y91.666 E1.69338
G1 X124.448 Y92.445 E1.72064
G1 X124.932 Y94.238 E1.78241
G1 X125.103 Y95.034 E1.80949
G1 X125.394 Y96.846 E1.87053
G1 X125.482 Y97.661 E1.89779
G1 X125.584 Y99.543 E1.96048
G1 X125.586 Y100.338 E1.98692
G1 X125.497 Y102.195 E2.04875
G1 X125.412 Y103.032 E2.07674
G1 X125.12 Y104.891 E2.13932
G1 X124.953 Y105.683 E2.16625
G1 X124.481 Y107.46 E2.2274
G1 X124.229 Y108.24 E2.25466
G1 X123.561 Y109.99 E2.31696
G1 X123.228 Y110.742 E2.34432
G1 X122.388 Y112.395 E2.40599
G1 X121.985 Y113.095 E2.43285
G1 X120.973 Y114.661 E2.49487
G1 X120.492 Y115.325 E2.52214
G1 X119.313 Y116.786 E2.58458
G1 X118.773 Y117.389 E2.6115
G1 X117.46 Y118.709 E2.67343
G1 X116.849 Y119.261 E2.70081
G1 X115.418 Y120.424 E2.76215
G1 X114.755 Y120.907 E2.78943
G1 X113.181 Y121.932 E2.8519
G1 X112.481 Y122.338 E2.87882
G1 X110.835 Y123.181 E2.94032
G1 X110.091 Y123.515 E2.96745
G1 X108.334 Y124.194 E3.0301
G1 X107.555 Y124.448 E3.05735
G1 X105.762 Y124.932 E3.11912
G1 X104.961 Y125.104 E3.14637
G1 X103.141 Y125.395 E3.20767
G1 X102.333 Y125.481 E3.2347
G1 X100.458 Y125.583 E3.29715
G1 X99.66 Y125.586 E3.3237
G1 X97.804 Y125.497 E3.3855
G1 X96.968 Y125.412 E3.41345
G1 X95.109 Y125.12 E3.47603
G1 X94.317 Y124.953 E3.50296
G1 X92.54 Y124.481 E3.56411
G1 X91.76 Y124.229 E3.59137
G1 X90.008 Y123.56 E3.65375
G1 X89.256 Y123.227 E3.6811
G1 X87.603 Y122.387 E3.74277
G1 X86.903 Y121.984 E3.76964
G1 X85.339 Y120.973 E3.83158
G1 X84.675 Y120.492 E3.85885
G1 X83.214 Y119.313 E3.92129
G1 X82.611 Y118.773 E3.94821
G1 X81.291 Y117.46 E4.01014
G1 X80.738 Y116.848 E4.03757
G1 X79.574 Y115.415 E4.09897
G1 X79.092 Y114.753 E4.12621
G1 X78.067 Y113.179 E4.18868
G1 X77.661 Y112.479 E4.2156
G1 X76.818 Y110.833 E4.27711
G1 X76.484 Y110.088 E4.30426
G1 X75.806 Y108.333 E4.36684
G1 X75.552 Y107.556 E4.39403
G1 X75.067 Y105.76 E4.4559
G1 X74.894 Y104.955 E4.48329
G1 X74.604 Y103.138 E4.54449
G1 X74.519 Y102.333 E4.57141
G1 X74.417 Y100.459 E4.63383
G1 X74.414 Y99.662 E4.66034
G1 X74.503 Y97.805 E4.72218
G1 X74.588 Y96.971 E4.75006
G1 X74.88 Y95.106 E4.81284
G1 X75.049 Y94.305 E4.84007
G1 X75.521 Y92.533 E4.90106
G1 X75.771 Y91.758 E4.92815
G1 X76.439 Y90.009 E4.99042
G1 X76.772 Y89.258 E5.01774
G1 X77.612 Y87.605 E5.07941
G1 X78.015 Y86.905 E5.10628
G1 X79.027 Y85.339 E5.16829
G1 X79.508 Y84.675 E5.19556
G1 X80.687 Y83.214 E5.258
G1 X81.227 Y82.611 E5.28493
G1 X82.54 Y81.291 E5.34685
G0 F1800 X82.824 Y81.573
G1 F900 X83.404 Y81.048 E5.37287
G1 X84.837 Y79.884 E5.43428
G1 X85.464 Y79.427 E5.46008
G1 X87.036 Y78.403 E5.52248
G1 X87.702 Y78.018 E5.54807
G1 X89.348 Y77.175 E5.60958
G1 X90.054 Y76.859 E5.6353
G1 X91.811 Y76.18 E5.69795
G1 X92.549 Y75.938 E5.72378
G1 X94.342 Y75.454 E5.78555
G1 X95.103 Y75.291 E5.81144
G1 X96.923 Y75 E5.87274
G1 X97.689 Y74.918 E5.89836
G1 X99.564 Y74.816 E5.96082
G1 X100.32 Y74.813 E5.98596
G1 X102.176 Y74.902 E6.04777
G1 X102.97 Y74.984 E6.07431
G1 X104.829 Y75.276 E6.1369
G1 X105.581 Y75.434 E6.16246
G1 X107.358 Y75.906 E6.22361
G1 X108.098 Y76.145 E6.24948
G1 X109.85 Y76.814 E6.31185
G1 X110.562 Y77.13 E6.33776
G1 X112.213 Y77.969 E6.39936
G1 X112.877 Y78.351 E6.42484
G1 X114.443 Y79.363 E6.48685
G1 X115.074 Y79.819 E6.51275
G1 X116.535 Y80.998 E6.57519
G1 X117.107 Y81.511 E6.60074
G1 X118.427 Y82.824 E6.66267
G1 X118.952 Y83.404 E6.68869
G1 X120.116 Y84.837 E6.75009
G1 X120.573 Y85.464 E6.7759
G1 X121.597 Y87.036 E6.8383
G1 X121.982 Y87.702 E6.86388
G1 X122.825 Y89.348 E6.92539
G1 X123.141 Y90.054 E6.95112
G1 X123.82 Y91.811 E7.01377
G1 X124.062 Y92.549 E7.0396
G1 X124.546 Y94.342 E7.10137
G1 X124.708 Y95.098 E7.12709
G1 X124.999 Y96.91 E7.18812
G1 X125.082 Y97.683 E7.21398
G1 X125.184 Y99.565 E7.27667
G1 X125.187 Y100.319 E7.30175
G1 X125.098 Y102.176 E7.36358
G1 X125.016 Y102.97 E7.39013
G1 X124.724 Y104.829 E7.45272
G1 X124.566 Y105.581 E7.47828
G1 X124.094 Y107.358 E7.53943
G1 X123.855 Y108.097 E7.56526
G1 X123.187 Y109.847 E7.62757
G1 X122.871 Y110.56 E7.6535
G1 X122.031 Y112.213 E7.71518
G1 X121.649 Y112.877 E7.74065
G1 X120.637 Y114.443 E7.80267
G1 X120.181 Y115.074 E7.82856
G1 X119.002 Y116.535 E7.891
G1 X118.489 Y117.107 E7.91656
G1 X117.176 Y118.427 E7.97848
G1 X116.597 Y118.951 E8.00446
G1 X115.166 Y120.114 E8.06579
G1 X114.537 Y120.572 E8.09167
G1 X112.963 Y121.597 E8.15414
G1 X112.298 Y121.982 E8.1797
G1 X110.652 Y122.825 E8.24121
G1 X109.946 Y123.141 E8.26693
G1 X108.189 Y123.82 E8.32958
G1 X107.451 Y124.062 E8.35542
G1 X105.658 Y124.546 E8.41719
G1 X104.897 Y124.709 E8.44307
G1 X103.077 Y125 E8.50437
G1 X102.311 Y125.082 E8.53
G1 X100.436 Y125.184 E8.59245
G1 X99.68 Y125.187 E8.6176
G1 X97.824 Y125.098 E8.6794
G1 X97.03 Y125.016 E8.70595
G1 X95.171 Y124.724 E8.76853
G1 X94.419 Y124.566 E8.79409
G1 X92.642 Y124.094 E8.85525
G1 X91.902 Y123.855 E8.88111
G1 X90.15 Y123.186 E8.94348
G1 X89.438 Y122.87 E8.96939
G1 X87.785 Y122.03 E9.03106
G1 X87.12 Y121.648 E9.05657
G1 X85.556 Y120.637 E9.11851
G1 X84.926 Y120.181 E9.14438
G1 X83.465 Y119.002 E9.20682
G1 X82.893 Y118.489 E9.23238
G1 X81.573 Y117.176 E9.2943
G1 X81.048 Y116.596 E9.32032
G1 X79.884 Y115.163 E9.38173
G1 X79.427 Y114.535 E9.40756
G1 X78.402 Y112.961 E9.47003
G1 X78.017 Y112.296 E9.49559
G1 X77.174 Y110.65 E9.5571
G1 X76.857 Y109.944 E9.58284
G1 X76.179 Y108.189 E9.64541
G1 X75.938 Y107.451 E9.67123
G1 X75.453 Y105.655 E9.73311
G1 X75.289 Y104.892 E9.75907
G1 X74.999 Y103.075 E9.82027
G1 X74.918 Y102.311 E9.84582
G1 X74.816 Y100.437 E9.90824
G1 X74.813 Y99.681 E9.93338
G1 X74.902 Y97.824 E9.99522
G1 X74.983 Y97.033 E10.02167
G1 X75.275 Y95.168 E10.08445
G1 X75.435 Y94.408 E10.11028
G1 X75.907 Y92.636 E10.17128
G1 X76.145 Y91.901 E10.19697
G1 X76.813 Y90.152 E10.25924
G1 X77.129 Y89.44 E10.28515
G1 X77.969 Y87.787 E10.34682
G1 X78.351 Y87.123 E10.3723
G1 X79.363 Y85.557 E10.43431
G1 X79.819 Y84.926 E10.46021
G1 X80.998 Y83.465 E10.52265
G1 X81.511 Y82.893 E10.54821
G1 X82.824 Y81.573 E10.61013
G0 F1800 X83.107 Y81.855
G1 F900 X83.657 Y81.359 E10.63476
G1 X85.09 Y80.195 E10.69617
G1 X85.682 Y79.763 E10.72054
G1 X87.254 Y78.739 E10.78294
G1 X87.884 Y78.374 E10.80716
G1 X89.53 Y77.531 E10.86867
G1 X90.198 Y77.232 E10.89301
G1 X91.955 Y76.553 E10.95566
G1 X92.654 Y76.324 E10.98012
G1 X94.447 Y75.84 E11.04189
G1 X95.166 Y75.686 E11.06635
G1 X96.986 Y75.395 E11.12765
G1 X97.711 Y75.317 E11.15191
G1 X99.586 Y75.215 E11.21436
G1 X100.301 Y75.213 E11.23814
G1 X102.157 Y75.302 E11.29994
G1 X102.908 Y75.379 E11.32505
G1 X104.767 Y75.671 E11.38764
G1 X105.478 Y75.821 E11.41181
G1 X107.255 Y76.293 E11.47296
G1 X107.955 Y76.519 E11.49743
G1 X109.707 Y77.188 E11.5598
G1 X110.381 Y77.487 E11.58433
G1 X112.032 Y78.326 E11.64592
G1 X112.66 Y78.687 E11.67002
G1 X114.226 Y79.699 E11.73203
G1 X114.823 Y80.131 E11.75654
G1 X116.284 Y81.31 E11.81898
G1 X116.825 Y81.794 E11.84313
G1 X118.145 Y83.107 E11.90505
G1 X118.641 Y83.657 E11.92968
G1 X119.805 Y85.09 E11.99109
G1 X120.237 Y85.682 E12.01546
G1 X121.261 Y87.254 E12.07786
G1 X121.626 Y87.884 E12.10208
G1 X122.469 Y89.53 E12.16359
G1 X122.768 Y90.198 E12.18793
G1 X123.447 Y91.955 E12.25058
G1 X123.676 Y92.654 E12.27504
G1 X124.16 Y94.447 E12.33681
G1 X124.313 Y95.161 E12.3611
G1 X124.604 Y96.973 E12.42214
G1 X124.683 Y97.704 E12.44659
G1 X124.785 Y99.586 E12.50928
G1 X124.787 Y100.3 E12.53303
G1 X124.698 Y102.157 E12.59487
G1 X124.621 Y102.908 E12.61997
G1 X124.329 Y104.767 E12.68256
G1 X124.179 Y105.478 E12.70673
G1 X123.707 Y107.255 E12.76788
G1 X123.482 Y107.954 E12.79231
G1 X122.814 Y109.704 E12.85461
G1 X122.514 Y110.379 E12.87918
G1 X121.674 Y112.032 E12.94085
G1 X121.313 Y112.66 E12.96494
G1 X120.301 Y114.226 E13.02696
G1 X119.869 Y114.823 E13.05146
G1 X118.69 Y116.284 E13.11391
G1 X118.206 Y116.825 E13.13805
G1 X116.893 Y118.145 E13.19997
G1 X116.345 Y118.64 E13.22454
G1 X114.914 Y119.803 E13.28587
G1 X114.319 Y120.237 E13.31036
G1 X112.745 Y121.262 E13.37284
G1 X112.116 Y121.626 E13.39701
G1 X110.47 Y122.469 E13.45852
G1 X109.802 Y122.768 E13.48286
G1 X108.045 Y123.447 E13.54551
G1 X107.346 Y123.676 E13.56997
G1 X105.553 Y124.16 E13.63174
G1 X104.834 Y124.314 E13.6562
G1 X103.014 Y124.605 E13.7175
G1 X102.289 Y124.683 E13.74175
G1 X100.414 Y124.785 E13.80421
G1 X99.699 Y124.787 E13.82799
G1 X97.843 Y124.698 E13.88979
G1 X97.092 Y124.621 E13.9149
G1 X95.233 Y124.329 E13.97749
G1 X94.522 Y124.179 E14.00166
G1 X92.745 Y123.707 E14.06281
G1 X92.045 Y123.481 E14.08728
G1 X90.293 Y122.812 E14.14965
G1 X89.619 Y122.513 E14.17418
G1 X87.966 Y121.673 E14.23585
G1 X87.337 Y121.312 E14.25997
G1 X85.773 Y120.301 E14.32191
G1 X85.177 Y119.869 E14.34639
G1 X83.716 Y118.69 E14.40883
G1 X83.175 Y118.206 E14.43298
G1 X81.855 Y116.893 E14.4949
G1 X81.359 Y116.343 E14.51953
G1 X80.195 Y114.91 E14.58094
G1 X79.762 Y114.317 E14.60536
G1 X78.737 Y112.743 E14.66783
G1 X78.373 Y112.114 E14.692
G1 X77.53 Y110.468 E14.75351
G1 X77.23 Y109.8 E14.77787
G1 X76.552 Y108.045 E14.84044
G1 X76.324 Y107.347 E14.86487
G1 X75.839 Y105.551 E14.92674
G1 X75.684 Y104.829 E14.9513
G1 X75.394 Y103.012 E15.0125
G1 X75.317 Y102.289 E15.03668
G1 X75.215 Y100.415 E15.09911
G1 X75.213 Y99.7 E15.12289
G1 X75.302 Y97.843 E15.18472
G1 X75.378 Y97.095 E15.20973
G1 X75.67 Y95.23 E15.27252
G1 X75.822 Y94.511 E15.29696
G1 X76.294 Y92.739 E15.35795
G1 X76.519 Y92.043 E15.38228
G1 X77.187 Y90.294 E15.44455
G1 X77.486 Y89.621 E15.46904
G1 X78.326 Y87.968 E15.53071
G1 X78.687 Y87.34 E15.55481
G1 X79.699 Y85.774 E15.61682
G1 X80.131 Y85.177 E15.64133
G1 X81.31 Y83.716 E15.70377
G1 X81.794 Y83.175 E15.72792
G1 X83.107 Y81.855 E15.78984
G0 F1800 X83.391 Y82.138
G1 F900 X83.909 Y81.669 E15.81308
G1 X85.342 Y80.505 E15.87449
G1 X85.901 Y80.098 E15.89748
G1 X87.473 Y79.074 E15.95988
G1 X88.066 Y78.73 E15.98268
G1 X89.712 Y77.887 E16.04419
G1 X90.342 Y77.605 E16.06715
G1 X92.099 Y76.926 E16.1298
G1 X92.758 Y76.71 E16.15287
G1 X94.551 Y76.226 E16.21464
G1 X95.229 Y76.081 E16.2377
G1 X97.049 Y75.79 E16.299
G1 X97.732 Y75.717 E16.32185
G1 X99.607 Y75.615 E16.3843
G1 X100.282 Y75.613 E16.40675
G1 X102.138 Y75.702 E16.46855
G1 X102.846 Y75.774 E16.49222
G1 X104.705 Y76.066 E16.55481
G1 X105.375 Y76.207 E16.57758
G1 X107.152 Y76.679 E16.63874
G1 X107.812 Y76.892 E16.6618
G1 X109.564 Y77.561 E16.72418
G1 X110.2 Y77.843 E16.74732
G1 X111.851 Y78.682 E16.80891
G1 X112.443 Y79.023 E16.83164
G1 X114.009 Y80.035 E16.89365
G1 X114.572 Y80.442 E16.91676
G1 X116.033 Y81.621 E16.9792
G1 X116.542 Y82.078 E17.00195
G1 X117.862 Y83.391 E17.06388
G1 X118.331 Y83.909 E17.08712
G1 X119.495 Y85.342 E17.14852
G1 X119.902 Y85.901 E17.17152
G1 X120.926 Y87.473 E17.23392
G1 X121.27 Y88.066 E17.25672
G1 X122.113 Y89.712 E17.31823
G1 X122.395 Y90.342 E17.34119
G1 X123.074 Y92.099 E17.40384
G1 X123.29 Y92.758 E17.4269
G1 X123.774 Y94.551 E17.48867
G1 X123.919 Y95.224 E17.51157
G1 X124.21 Y97.036 E17.57261
G1 X124.283 Y97.726 E17.59569
G1 X124.385 Y99.608 E17.65837
G1 X124.387 Y100.281 E17.68076
G1 X124.298 Y102.138 E17.74259
G1 X124.226 Y102.846 E17.76626
G1 X123.934 Y104.705 E17.82885
G1 X123.793 Y105.375 E17.85162
G1 X123.321 Y107.152 E17.91278
G1 X123.108 Y107.812 E17.93584
G1 X122.44 Y109.562 E17.99814
G1 X122.158 Y110.198 E18.02128
G1 X121.318 Y111.851 E18.08295
G1 X120.977 Y112.443 E18.10568
G1 X119.965 Y114.009 E18.16769
G1 X119.558 Y114.572 E18.1908
G1 X118.379 Y116.033 E18.25324
G1 X117.922 Y116.542 E18.27599
G1 X116.609 Y117.862 E18.33792
G1 X116.093 Y118.33 E18.36109
G1 X114.662 Y119.493 E18.42242
G1 X114.101 Y119.902 E18.44551
G1 X112.527 Y120.927 E18.50798
G1 X111.934 Y121.27 E18.53077
G1 X110.288 Y122.113 E18.59228
G1 X109.658 Y122.395 E18.61523
G1 X107.901 Y123.074 E18.67788
G1 X107.242 Y123.29 E18.70095
G1 X105.449 Y123.774 E18.76272
G1 X104.771 Y123.919 E18.78578
G1 X102.951 Y124.21 E18.84708
G1 X102.268 Y124.283 E18.86993
G1 X100.393 Y124.385 E18.93238
G1 X99.718 Y124.387 E18.95483
G1 X97.862 Y124.298 E19.01664
G1 X97.154 Y124.226 E19.0403
G1 X95.295 Y123.934 E19.10289
G1 X94.625 Y123.793 E19.12567
G1 X92.848 Y123.321 E19.18682
G1 X92.188 Y123.108 E19.20989
G1 X90.436 Y122.439 E19.27226
G1 X89.8 Y122.157 E19.2954
G1 X88.147 Y121.317 E19.35707
G1 X87.554 Y120.976 E19.37982
G1 X85.99 Y119.965 E19.44176
G1 X85.428 Y119.558 E19.46484
G1 X83.967 Y118.379 E19.52728
G1 X83.458 Y117.922 E19.55004
G1 X82.138 Y116.609 E19.61196
G1 X81.669 Y116.091 E19.6352
G1 X80.505 Y114.658 E19.69661
G1 X80.097 Y114.099 E19.71962
G1 X79.072 Y112.525 E19.7821
G1 X78.729 Y111.932 E19.80488
G1 X77.886 Y110.286 E19.86639
G1 X77.603 Y109.655 E19.88939
G1 X76.925 Y107.9 E19.95197
G1 X76.71 Y107.243 E19.97496
G1 X76.225 Y105.447 E20.03684
G1 X76.079 Y104.766 E20.06
G1 X75.789 Y102.949 E20.1212
G1 X75.717 Y102.268 E20.14397
G1 X75.615 Y100.394 E20.2064
G1 X75.613 Y99.719 E20.22885
G1 X75.702 Y97.862 E20.29068
G1 X75.773 Y97.157 E20.31425
G1 X76.065 Y95.292 E20.37704
G1 X76.208 Y94.614 E20.40008
G1 X76.68 Y92.842 E20.46107
G1 X76.892 Y92.186 E20.484
G1 X77.56 Y90.437 E20.54627
G1 X77.842 Y89.802 E20.56938
G1 X78.682 Y88.149 E20.63105
G1 X79.023 Y87.557 E20.65378
G1 X80.035 Y85.991 E20.71579
G1 X80.442 Y85.428 E20.7389
G1 X81.621 Y83.967 E20.80134
G1 X82.078 Y83.458 E20.82409
G1 X83.391 Y82.138 E20.88602
G0 F1800 X83.674 Y82.42
G1 F900 X84.161 Y81.98 E20.90784
G1 X85.594 Y80.816 E20.96925
G1 X86.119 Y80.433 E20.99086
G1 X87.691 Y79.409 E21.05326
G1 X88.249 Y79.086 E21.07471
G1 X89.895 Y78.243 E21.13622
G1 X90.486 Y77.978 E21.15776
G1 X92.243 Y77.299 E21.22041
G1 X92.862 Y77.096 E21.24207
G1 X94.655 Y76.612 E21.30384
G1 X95.292 Y76.476 E21.32551
G1 X97.112 Y76.185 E21.38681
G1 X97.754 Y76.116 E21.40829
G1 X99.629 Y76.014 E21.47074
G1 X100.263 Y76.012 E21.49183
G1 X102.119 Y76.101 E21.55363
G1 X102.784 Y76.169 E21.57586
G1 X104.643 Y76.461 E21.63845
G1 X105.273 Y76.594 E21.65987
G1 X107.05 Y77.066 E21.72102
G1 X107.67 Y77.266 E21.74269
G1 X109.422 Y77.935 E21.80506
G1 X110.019 Y78.2 E21.82679
G1 X111.67 Y79.039 E21.88839
